X:142
T:Rhythm A Ning
C:Monk
N:TablEdited by Jim Nikora
L:1/8
Q:1/4=200
M:4/4
K:Bb
|: "Bb"B,2 D2 "Bb7/D"F4 | "Eb7"E2 GB3 F2 | "Bb7/F"z2 G2 "G+7"E2 F2 | "Cmin7"D2 EC4F | 
"Bb"G_A2F "Bb7/D"G2 A2 | "Eb7"z3F "Edim"G_A2F | "Bb"G2 _A6 |1 z8 :|2 z7/1D |] "D7"=E_G2D E2 G2 | 
z3D =E_G2D | "G7"=E2 F6 | z7/1D | "C7"=E_G2D E2 G2 | z3D =E_G2D | "F7"=E2 _G2 _A2 B2 | 
[=B8E8] | 

